X: 13462
T: Flora Macdonald
R: reel
M: 4/4
K: Gmajor
|:E2EF BFEF|E2EF dFDF|DEEF EFGA|BGAG FD DF:|
f2ef beef|g2gb agfd|(3eee ed efga|bgag fd dF|
f2ef beef|g2gb agfd|(3eee ed efga|bgag fe de|
BEBA BEEe|BEB^c dBAe|BEBA B^cde|fde^c dBAF|
BEBA BEEe|BEBA BEEe|BEE^c dBAc|(3BBB B^c dfdf|^cece dB A2|

